!!!!SEGMENT: pl-kk--kk-i-38--001_lasso-orlando-di--confitemini-domino.krn
!!!cenid: 16xx:1251
!!!COM: Lasso, Orlando di
!!!COM-rismid: pe506
!!!CDT: ~1532-1594/06/14
!!!CNT: French-Flemish
!!!OTL: Confitemini Domino
!!!PDT:
!!!AGN: Sacred
!!!SMS-siglum: PL-Kk
!!!SMS-shelfmark: Kk.I.38
!!!SMS-shelfwork: 001 W
!!!SMS-variant:
!!!SMS-altvar:
!!!NIFC-rismid: 1001153735
!!!URL-scan: http://repozytorium.nifc.pl/skany/pl-kk-nut--i-38
!!!ONB-nifc: Lib. 1. Fol. 3. 2da parte (jeśli występuje), należy do utworu tytułowego
!!!key:
**kern	**text
*Iempty	*
*I"Baſso Ripieno.	*
*clefF3	*
*k[b-]	*
*g:	*
*M2/1	*
*met(c|)	*
=1-	=1-
!LO:TX:a:i:t=Lib. 1. Fol. 3.	!
!LO:TX:t=P:problem:kreska pseudotaktowa	!
!LO:TX:t=P:problem:w źródle znaki przykluczowe BB- i B- jeden nad drugim	!
0r	.
=2-	=2-
*2\right	*
1G	Con-
2G\	-fi-
(>2.G\	-te-
=3-	=3-
4G\)	-mi-
!LO:TX:t=P:problem:kreska pseudotaktowa	!
2G\	-ni
2.D/	Do-
4E/	.
=4-	=4-
2F#X\	.
2G\|	mi-
!LO:TX:t=P:problem:kreska pseudotaktowa	!
1D,<	-no!
=5-	=5-
2r	.
!LO:TX:t=P:problem:kreska pseudotaktowa	!
2G\	Con-
2G\	-fi-
!LO:TX:t=P:problem:kreska pseudotaktowa	!
(>2.G\	-te-
=6-	=6-
4G\)	-mi-
!LO:TX:t=P:problem:kreska pseudotaktowa	!
2G\	-ni
1.D	Do-
=7-	=7-
!LO:TX:t=P:problem:kreska pseudotaktowa	!
2D/	-mi-
!LO:TX:t=P:problem:kreska pseudotaktowa	!
1A,<	-no,
=8-	=8-
2rA	.
!LO:TX:t=P:problem:kreska pseudotaktowa	!
2d\	et
2d\	in-
!LO:TX:t=P:problem:kreska pseudotaktowa	!
2d\	-vo-
=9-	=9-
2c\	-ca-
!LO:TX:t=P:problem:kreska pseudotaktowa	!
2A\	-te
2B-\	No-
!LO:TX:t=P:problem:kreska pseudotaktowa	!
2G\	-men
=10-	=10-
!LO:TX:t=P:problem:kreska pseudotaktowa	!
!LO:SIC:v:t=custos A	!
1d	e-
!LO:LB:g=original	!
(>2.A\	.
!LO:TX:t=P:problem:kreska pseudotaktowa	!
4B-\)	.
=11-	=11-
2c\	.
!LO:TX:t=P:problem:kreska pseudotaktowa	!
2G\	-jus.
0r	.
=12-	=12-
!LO:TX:t=P:problem:kreska pseudotaktowa	!
1r	.
=13-	=13-
!LO:TX:t=P:problem:kreska pseudotaktowa	!
1d	et
2d\	in-
!LO:TX:t=P:problem:kreska pseudotaktowa	!
2d\	-vo-
=14-	=14-
1c	-ca-
!LO:TX:t=P:problem:kreska pseudotaktowa	!
1B-,>	-te
=15-	=15-
2G\	no-
2B-,>\	-men
1Fny	e-
=16-	=16-
!LO:TX:t=P:problem:kreska pseudotaktowa	!
1BB-,<	-jus.
0r	.
=17-	=17-
!LO:TX:t=P:problem:kreska pseudotaktowa	!
!LO:TX:t=P:problem:kreska pseudotaktowa	!
1G	et
=18-	=18-
2G\	in-
!LO:TX:t=P:problem:kreska pseudotaktowa	!
2G\	-vo-
1F	-ca-
=19-	=19-
!LO:TX:t=P:problem:kreska pseudotaktowa	!
0E-X,<	-te
=20-	=20-
1BB-	no-
!LO:TX:t=P:problem:kreska pseudotaktowa	!
1C	-men
=21-	=21-
1G	E-
!LO:TX:t=P:problem:kreska pseudotaktowa	!
1C,<	-jus!
=22-	=22-
!LO:TX:t=P:problem:kreska pseudotaktowa	!
!LO:TX:a:t=I.	!
1r	.
2r	.
!LO:TX:t=P:problem:kreska pseudotaktowa	!
2G\	an-
=23-	=23-
2G\	-nun-
2G\	-ti-
1c	-a-
=24-	=24-
!LO:TX:t=P:problem:kreska pseudotaktowa	!
1F,<	-te
!LO:LB:g=original	!
2r	.
!LO:TX:t=P:problem:kreska pseudotaktowa	!
(<2.B-\	in-
=25-	=25-
4c\)	.
!LO:TX:t=P:problem:kreska pseudotaktowa	!
2d\	.
2G,<\	-ter
2.B-\	gen-
=26-	=26-
.	.
4c\	.
2d\	.
!LO:TX:t=P:problem:kreska pseudotaktowa	!
1D,<	-tes,
=27-	=27-
2r	.
2.A\	in-
4B-\	.
!LO:TX:t=P:problem:kreska pseudotaktowa	!
2c\	.
=28-	=28-
2F,<\	-ter
2.A\	gen-
4B-\	.
2c\	.
=29-	=29-
!LO:TX:t=P:problem:kreska pseudotaktowa	!
1C,<	-tes,
2r	.
2.G\	in-
=30-	=30-
4A\	.
!LO:TX:t=P:problem:kreska pseudotaktowa	!
2B-\	-ter
2E-X,</	.
(>2.G\	gen-
=31-	=31-
4A\)	.
2B-\	.
!LO:TX:t=P:problem:kreska pseudotaktowa	!
1BB-,<	-tes
=32-	=32-
1.F	o-
2F\	-pe-
=33-	=33-
!LO:TX:t=P:problem:kreska pseudotaktowa	!
1G,<	-ra
1A	e-
=34-	=34-
!LO:TX:t=P:problem:kreska pseudotaktowa	!
1D,<	-jus.
!LO:TX:t=P:problem:kreska pseudotaktowa	!
!LO:LB:g=original	!
00r	.
=35-	=35-
.	.
=36-	=36-
!LO:TX:t=P:problem:kreska pseudotaktowa	!
2r	.
!LO:TX:t=P:problem:kreska pseudotaktowa	!
2d\	Can-
=37-	=37-
4d\	-ta-
4c\	.
4B-\	.
!LO:TX:t=P:problem:kreska pseudotaktowa	!
4A\	.
2G\	.
!LO:TX:t=P:problem:kreska pseudotaktowa	!
2G,<\	-te
=38-	=38-
4B-\	e-
4A\	.
4G\	.
!LO:TX:t=P:problem:kreska pseudotaktowa	!
4F\	.
4E-X/	.
4D/	.
!LO:TX:t=P:problem:kreska pseudotaktowa	!
2C/	.
=39-	=39-
!LO:TX:t=P:problem:kreska pseudotaktowa	!
1C	-i
2rBB	.
2C/	et
=40-	=40-
2.F\	psal-
!LO:TX:t=P:problem:kreska pseudotaktowa	!
4F\	-li-
4D/	-te
4E/ny	.
4F/	.
!LO:TX:t=P:problem:kreska pseudotaktowa	!
4G/	.
=41-	=41-
4A\	.
4B-\	.
!LO:TX:t=P:problem:kreska pseudotaktowa	!
2c\	.
2.G\	E-
!LO:TX:t=P:problem:kreska pseudotaktowa	!
4A\	.
=42-	=42-
2.B-\	.
!LO:TX:t=P:problem:kreska pseudotaktowa	!
4c\	.
2.d\	.
!LO:TX:t=P:problem:kreska pseudotaktowa	!
4c\	.
=43-	=43-
2.A\	.
!LO:TX:t=P:problem:kreska pseudotaktowa	!
4B-\	.
2.c\	.
!LO:TX:t=P:problem:kreska pseudotaktowa	!
4B-\	.
=44-	=44-
2.G\	.
4A\	.
2.B-\	.
4A\	.
=45-	=45-
2.F\	.
4G\	.
1A	.
=46-	=46-
!LO:TX:t=P:problem:podwójna kreska pseudotaktowa	!
0D;>	-i.
!LO:LB:g=original	!
=47||-	=47||-
*k[b-]	*
*M2/1	*
!LO:TX:a:i:t=2da Parte	!
*met(c|)	*
!LO:TX:t=P:problem:kreska pseudotaktowa	!
!LO:TX:t=P:problem:w źródle znaki przykluczowe BB- i B- jeden nad drugim	!
0r	.
=48-	=48-
1G	Nar-
(>2.B-\	-ra-
!LO:TX:t=P:problem:kreska pseudotaktowa	!
4c\)	.
=49-	=49-
4d\	.
4c\	.
4B-\	.
4A\	.
1G	.
=50-	=50-
!LO:TX:t=P:problem:kreska pseudotaktowa	!
1D,<	-te
1d	nar-
=51-	=51-
2.B-\	-ra-
!LO:TX:t=P:problem:kreska pseudotaktowa	!
4A\	.
1G	.
=52-	=52-
!LO:TX:t=P:problem:kreska pseudotaktowa	!
1D,<	-te
2r	.
1G\	om-
=53-	=53-
2G\	-ni-
!LO:TX:t=P:problem:kreska pseudotaktowa	!
1F,<	-a
=54-	=54-
1A	mi-
2G\	-ra-
1D/	-bi-
=55-	=55-
!LO:TX:t=P:problem:kreska pseudotaktowa	!
2G\	-li-
2G,<\	-a
2.C/	e-
=56-	=56-
4D/	.
4E/	.
4F/	.
!LO:TX:t=P:problem:kreska pseudotaktowa	!
!LO:SIC:v:t=custos D	!
1G	.
!LO:LB:g=original	!
=57-	=57-
2D,</	-jus
1d	om-
2d\	-ni-
=58-	=58-
!LO:TX:t=P:problem:kreska pseudotaktowa	!
1A,<	-a
!LO:TX:a:t=I.	!
1r	.
=59-	=59-
1D	mi-
2G\	-ra-
1E-X/	-bi-
=60-	=60-
2BB-/	li-
!LO:TX:t=P:problem:kreska pseudotaktowa	!
1BB-,<	-a
=61-	=61-
1F	e-
!LO:TX:t=P:problem:kreska pseudotaktowa	!
1C,<	-jus.
=62-	=62-
1r	.
2rD	.
!LO:TX:t=P:problem:kreska pseudotaktowa	!
2D/	Lau-
=63-	=63-
2.G\	-da-
4G\	-mi-
2C,</	-ni
!LO:TX:t=P:problem:kreska pseudotaktowa	!
2c\	in
=64-	=64-
!LO:TX:a:t=P:problem:♭ above	!
2.B-X\	No-
4B-\	-mi-
(>4F\	-ne
4G\	.
4A\)	.
!LO:TX:t=P:problem:kreska pseudotaktowa	!
4B-\	.
=65-	=65-
2c,>\	.
4G\	San-
!LO:TX:t=P:problem:kreska pseudotaktowa	!
4A\	.
4B-\	.
4c\	.
2d\	.
=66-	=66-
!LO:TX:t=P:problem:kreska pseudotaktowa	!
1G,<	-cto
1B-	e-
=67-	=67-
!LO:TX:t=P:problem:kreska pseudotaktowa	!
1F,<	-jus.
2r	.
!LO:TX:t=P:problem:kreska pseudotaktowa	!
2B-\	lae-
=68-	=68-
4d\	-te-
4c\	.
4B-\	.
!LO:TX:t=P:problem:kreska pseudotaktowa	!
4A\	.
4G\	.
4F\	.
4G\	.
!LO:TX:t=P:problem:kreska pseudotaktowa	!
!LO:SIC:v:t=custos B	!
4A\	.
!LO:LB:g=original	!
=69-	=69-
4B-\	.
4c\	.
4d\	.
4B-\	.
2c\	.
2d,>\	tur
=70-	=70-
!LO:TX:t=P:problem:kreska pseudotaktowa	!
1G,<	Cor
0r	.
=71-	=71-
.	.
=72-	=72-
2r	.
2G\	lae-
=73-	=73-
4D/	-te-
4C/	.
4D/	.
!LO:TX:t=P:problem:kreska pseudotaktowa	!
4E/ny	.
4F/	.
4G/	.
4F/	.
!LO:TX:t=P:problem:kreska pseudotaktowa	!
4E/	.
=74-	=74-
4D/	.
4BB-/	.
2E/	.
1D,<	-tur
=75-	=75-
!LO:TX:t=P:problem:kreska pseudotaktowa	!
1G,<	cor
0r	.
=76-	=76-
1D	quae-
=77-	=77-
2.G\	-ren-
!LO:TX:t=P:problem:kreska pseudotaktowa	!
4G\	-ti-
2F,</	-u(m)
4D/	Do-
!LO:TX:t=P:problem:kreska pseudotaktowa	!
4E/	.
=78-	=78-
4F\	.
4G\	.
2.A\	.
4G\	.
1G\	.
=79-	=79-
2F\	-mi-
!LO:TX:t=P:problem:kreska pseudotaktowa	!
0G,<	-num.
=80-	=80-
0r	.
=81-	=81-
!LO:TX:t=P:problem:kreska pseudotaktowa	!
1r	.
=82-	=82-
2r	.
2D/	quae-
4G\	.
4A\	.
4B-\	.
!LO:TX:t=P:problem:kreska pseudotaktowa	!
4A\	.
=83-	=83-
2G\	-ren-
!LO:TX:t=P:problem:kreska pseudotaktowa	!
!LO:SIC:v:t=custos D	!
2G\	-ti-
!LO:LB:g=original	!
2D,</	-um
4BB-/	Do-
!LO:TX:t=P:problem:kreska pseudotaktowa	!
4C/	.
=84-	=84-
4D/	.
4E/	.
4F/	.
!LO:TX:t=P:problem:kreska pseudotaktowa	!
4C/	.
2D/	.
2E-X/	mi-
=85-	=85-
!LO:TX:t=P:problem:kreska pseudotaktowa	!
1D,<	-num
2rB	.
1d\	quae-
=86-	=86-
.	-ren-
!LO:TX:t=P:problem:kreska pseudotaktowa	!
[<2d\	-ren-
2d\]	.
!LO:TX:t=P:problem:kreska pseudotaktowa	!
2B-\	-ti-
=87-	=87-
2c\	-um
1d	.
!LO:TX:t=P:problem:kreska pseudotaktowa	!
2c\	Do-
=88-	=88-
2B-\	.
4A\	.
4G\	.
2.A\	-mi-
4A\	.
=89-	=89-
!LO:TX:t=P:problem:kreska pseudotaktowa	!
1G,<	-num,
0D	quae-
=90-	=90-
.	.
2.G\	ren-
4G\	-ti-
=91-	=91-
2F,</	-u(m)
4BB-/	Do-
!LO:TX:t=P:problem:kreska pseudotaktowa	!
4C/	.
4D/	.
4E/ny	.
4F/	.
4C/	.
=92-	=92-
2D/	.
2E-X/	-mi-
!LO:TX:t=P:problem:kreska pseudotaktowa	!
1D,<	-num
=93-	=93-
2r	.
2.G\	Do-
4F/	.
4E-X/	.
4D/	.
=94-	=94-
2C/	.
2C/	.
1C	-mi-
=95-	=95-
!LO:TX:t=P:problem:końcowa kreska pseudotaktowa	!
0G;>	-num
=-	=-
*-	*-
!!!RDF**kern: > = above
!!!RDF**kern: < = below
!!!EED: Antoni Szymański
!!!EST: 2021-07-28
!!!AIN: 1 empty
!!!ENC: Krzysztof Stępień
!!!END: 2021-07-01
!!!RDF**kern: | = vertical stroke
